src/main/webapp/scripts/pdfjs/v54530/web/images/toolbarButton-presentationMode.svg

<svg fill="none" height="16" viewBox="0 0 16 16" width="16" xmlns="http://www.w3.org/2000/svg"><path d="m1.5 3c0-.27579.22421-.5.5-.5h12c.2758 0 .5.22421.5.5v8c0 .2758-.2242.5-.5.5h-12c-.27579 0-.5-.2242-.5-.5zm.5-2c-1.104214 0-2 .89579-2 2v8c0 1.1042.895786 2 2 2h.64979l-1.29927 2.2499 1.29897.7501 1.73245-3h7.25716l1.7324 3 1.299-.7501-1.2993-2.2499h.6288c1.1042 0 2-.8958 2-2v-8c0-1.10421-.8958-2-2-2zm3.79501 3.64401v4.712c0 .494.534.80299.962.558l4.12299-2.356c.432-.246.432-.869 0-1.116l-4.12299-2.356c-.429-.245-.962.064-.962.558z" fill="#000"/></svg>

<svg width="16" height="16" viewBox="0 0 16 16" fill="none" xmlns="http://www.w3.org/2000/svg">
<path d="M1.5 3C1.5 2.72421 1.72421 2.5 2 2.5H14C14.2758 2.5 14.5 2.72421 14.5 3V11C14.5 11.2758 14.2758 11.5 14 11.5H2C1.72421 11.5 1.5 11.2758 1.5 11V3ZM2 1C0.895786 1 0 1.89579 0 3V11C0 12.1042 0.895786 13 2 13H2.64979L1.35052 15.2499L2.64949 16L4.38194 13H11.6391L13.3715 16L14.6705 15.2499L13.3712 13H14C15.1042 13 16 12.1042 16 11V3C16 1.89579 15.1042 1 14 1H2ZM5.79501 4.64401V9.35601C5.79501 9.85001 6.32901 10.159 6.75701 9.91401L10.88 7.55801C11.312 7.31201 11.312 6.68901 10.88 6.44201L6.75701 4.08601C6.32801 3.84101 5.79501 4.15001 5.79501 4.64401Z" fill="black"/>
</svg>
